!! 00000] TT[WS
!!!OTL: Chou dayan
!!!ARE: Asia, China, Shanxi Hequ
!! Ethnic Group: Han
!! WII, 205 (1)
!!!SCT: J0706
!!!YEM: Copyright 1995, estate of Helmut Schaffrath.
**kern
*ICvox
*Ivox
*M2/4
*k[b-e-a-]
*E-:
{4cc
8g
8b-
=1
8ee-
8b-
8dd
8cc
=2
4b-
4gg}
=3
{8ee-
8dd
8cc
8b-
=4
8g
8b-
8g
8f
=5
2e-}
=6
{8g
8b-
4d
=7
8e-
8f
8d
8c
=8
4B-
8ee-
8cc}
=9
{8.b-
16cc
8b-
8g
=10
8f
8g
4b-
=11
8cc
8b-
8g
8f
=12
4.e-
8c
=13
4e-
4e-}
=14
{4.e-
8f
=15
4g
8ee-
8cc
=16
8f
8g
8b-
8ee-
=17
8cc
8b-
4e-}
=18
{8.f
16d
8f
16g
16b-
=19
8g
8f
8e-
8d
=20
8.c
16d
4B-}
=21
{8g
8f
8d
8c
=22
4.B-
8c
=23
4B-
4B-}
==
!!!AGN: Xiaodiao
!!!ONB: ESAC (Essen Associative Code) Database: CHINA
!!!AMT: simple duple
!!!AIN: vox
!!!EED: Helmut Schaffrath
!!!EEV: 1.0
*-
